img/icons/icon_book_online.svg

<svg width="100" height="100" viewBox="0 0 100 100" fill="none" xmlns="http://www.w3.org/2000/svg">
<path d="M16.6667 25H91.6667V16.6667H16.6667C12.0833 16.6667 8.33333 20.4167 8.33333 25V70.8333H0V83.3333H58.3333V70.8333H16.6667V25ZM95.8333 33.3334H70.8333C68.5417 33.3334 66.6667 35.2084 66.6667 37.5V79.1667C66.6667 81.4583 68.5417 83.3333 70.8333 83.3333H95.8333C98.125 83.3333 100 81.4583 100 79.1667V37.5C100 35.2084 98.125 33.3334 95.8333 33.3334ZM91.6667 70.8333H75V41.6667H91.6667V70.8333Z" fill="#3077C6"/>
</svg>

<svg xmlns="http://www.w3.org/2000/svg" width="100" height="100" fill="none"><path fill="#3077C6" d="M16.667 25h75v-8.333h-75c-4.584 0-8.334 3.75-8.334 8.333v45.833H0v12.5h58.333v-12.5H16.667V25Zm79.166 8.333h-25a4.179 4.179 0 0 0-4.166 4.167v41.667a4.179 4.179 0 0 0 4.166 4.166h25A4.179 4.179 0 0 0 100 79.167V37.5a4.179 4.179 0 0 0-4.167-4.167Zm-4.166 37.5H75V41.667h16.667v29.166Z"/></svg>
